X:1901
T:None so Pretty
P:Johnnie in Nether Mains
C:Niel Gow
R:Reel (8x40) ABABB
B:RSCDS 19-1
Z:Anselm Lingnau <anselm@strathspey.org>
M:4/4
L:1/8
K:F
C|"F"F4 F2A>c|dc Ac "Bb"d2f2|"F"c2A2 "Dm"A2GF|"Gm"A2G2 "C7"F2D2|
  "F"F4 F2Ac|dc Ac "Bb"d2e2|"F/A"f3g "Bb"fgab|"C7"a2g2 "F"f3||
c|"F"f3g fedc|"Bb"d2c2 "F"A2c2|f3g "Dm"afga|"Bb"d4 "C7"c2 de|
  "Dm"fdgf "C"ecfe|"Dm"dc Ac "C7"de fg|"F"a3A "Bb"BA GF|"C7"A2G2 "F"F3|]

